X:68
T: Graf und Nonne (Die Nonne)
N: Q0155E
O: Osteuropa, Ungarn, Batschka
N: Anhaengsel an der zweiten Zeile. Taktart in Taktwechsel geaendert.
R: Ballade, Standesunterschied, vergebliche Werbung, Liebe, Klage
M: 4/4
L: 1/8
K: G
D2 | G3DB,2D2 | G2B2B2z
B | A3GF2G2 | A2DDD2z2 |
GA | B3BB3B | B2d2c2
AB | c3cc3c | c2e2d2
dc | B2B2A2Ac | B2z4

@@@ Tune index: 1778
